!!!Genre:	Freylekhs
!!!Mode:	Freygish
!!!Edition:	2001
!!!Listening/dance:	dance
!!!Free rhythm?:	No
!!!Secondary Modes:	17-20
!!!:	*C:
!!!One_Mode:	no
**kern
*part1
*staff1
*clefG2
*k[b-e-a-]
*G:frey
*M2/4
*>A
8g
=1
8bnL
8ccJ
4dd
=2
(>16ee-LL
16ffJ
8ee-J)
4dd
=3
(>16ccLL
16ddJ
8ccJ)
4bn
=4
(<16a-LL
16bnJ
8a-J)
4g
=5
8bnL
8ccJ
4dd
=6
8ee-L
8ddJ
12ee-L
12dd
12ccJ
=7
2dd
=8
2gg
=9
8bnL
8ccJ
4dd
=10
(>16ee-LL
16ffJ
8ee-J)
4dd
=11
(>16ccLL
16ddJ
8ccJ)
4bn
=12
(<16a-LL
16bnJ
8a-J)
4g
=13
8fL
8en
8f
8eJ
=14
8fL
8cc
8bn
8a-J
=15
2g
=16
4g
8r
=16:|!
8r
*>bM
*C:
=17!|:
*>B
8ccL
8ddJ
8eenL
8ffJ
=18
16eenLL
16ffJ
8eeJ
8ddL
8ccJ
=19
8ddL
16eenL
16ddJJ
8ccL
8bnJ
=20
2cc
*>eM
*>bM
*D:frey
=21
8ddL
8ee-X
8dd
8ee-J
=22
8ddL
8gg
8ff#X
8ee-J
=23
2dd
=24
2gg
*>eM
*G:frey
=25:|!|:
*>C
8ee-L
8ddJ
12ee-L
12dd
12ccJ
=26
8ccL
8bnJ
12ccL
12b
12a-J
=27
8a-L
8gJ
12a-L
12g
12fJ
=28
2f
=29
8fL
8a-
8g
8fJ
=30
8fL
8cc
8bn
8a-J
=31
4g
4bn
=32
4dd
4gg
=33:|!
[2g
=34
4g]
4r
==
*-
